img/rs_school_js.svg

<?xml version="1.0" encoding="UTF-8" standalone="no"?><!-- Generator: Gravit.io --><svg xmlns="http://www.w3.org/2000/svg" xmlns:xlink="http://www.w3.org/1999/xlink" style="isolation:isolate" viewBox="0 0 552.8 205.3" width="552.8pt" height="205.3pt"><defs><clipPath id="_clipPath_kQvJ2lfdK80EdXeyoplbicxMfYJhgQsP"><rect width="552.8" height="205.3"/></clipPath></defs><g clip-path="url(#_clipPath_kQvJ2lfdK80EdXeyoplbicxMfYJhgQsP)"><path d=" M 285.4 68 L 311.7 66.3 C 312.3 70.6 313.4 73.8 315.2 76.1 C 318.1 79.7 322.1 81.5 327.4 81.5 C 331.3 81.5 334.4 80.6 336.5 78.7 C 338.5 77.2 339.7 74.8 339.7 72.3 C 339.7 69.9 338.6 67.6 336.7 66.1 C 334.7 64.3 330 62.5 322.6 60.9 C 310.5 58.2 301.8 54.6 296.7 50 C 291.6 45.7 288.7 39.4 288.9 32.7 C 288.9 28.1 290.3 23.5 292.9 19.7 C 295.9 15.4 300 12 304.9 10.1 C 310.2 7.8 317.6 6.6 326.9 6.6 C 338.3 6.6 347 8.7 353 13 C 359 17.2 362.6 24 363.7 33.3 L 337.7 34.8 C 337 30.8 335.6 27.9 333.3 26 C 331 24.1 328 23.2 324.1 23.2 C 320.9 23.2 318.5 23.9 316.9 25.2 C 315.4 26.4 314.4 28.2 314.5 30.2 C 314.5 31.7 315.3 33.1 316.5 34 C 317.8 35.2 320.9 36.3 325.8 37.3 C 337.9 39.9 346.5 42.5 351.8 45.2 C 357.1 47.9 360.9 51.2 363.2 55.1 C 365.6 59.1 366.8 63.7 366.7 68.4 C 366.7 74 365.1 79.6 361.9 84.3 C 358.6 89.2 354 93 348.6 95.3 C 342.9 97.8 335.7 99.1 327.1 99.1 C 311.9 99.1 301.4 96.2 295.5 90.3 C 289.6 84.4 286.1 77 285.4 68 Z  M 6.3 97.6 L 6.3 8.2 L 52.4 8.2 C 60.9 8.2 67.5 8.9 72 10.4 C 76.4 11.8 80.3 14.7 82.9 18.6 C 85.8 22.9 87.2 27.9 87.1 33.1 C 87.4 41.9 82.9 50.3 75.2 54.7 C 72.2 56.4 68.9 57.6 65.5 58.2 C 68 58.9 70.5 60.1 72.7 61.5 C 74.4 62.9 75.8 64.5 77.1 66.2 C 78.6 67.9 79.9 69.8 81 71.8 L 94.4 97.7 L 63 97.7 L 48.2 70.2 C 46.3 66.7 44.7 64.4 43.2 63.3 C 41.2 61.9 38.8 61.2 36.4 61.2 L 34 61.2 L 34 97.5 L 6.3 97.5 L 6.3 97.6 Z  M 34 44.4 L 45.7 44.4 C 48.2 44.2 50.6 43.8 53 43.2 C 54.8 42.9 56.4 41.9 57.5 40.4 C 60.2 36.8 59.8 31.7 56.5 28.6 C 54.7 27.1 51.2 26.3 46.2 26.3 L 34 26.3 L 34 44.4 L 34 44.4 Z  M 0 174.2 L 26.3 172.5 C 26.9 176.8 28 180 29.8 182.3 C 32.6 185.9 36.7 187.8 42 187.8 C 45.9 187.8 49 186.9 51.1 185 C 53.1 183.4 54.3 181.1 54.3 178.6 C 54.3 176.2 53.2 173.9 51.3 172.4 C 49.3 170.6 44.6 168.8 37.1 167.2 C 25 164.5 16.3 160.9 11.2 156.3 C 6.1 152 3.2 145.7 3.4 139 C 3.4 134.4 4.8 129.8 7.4 126 C 10.4 121.7 14.5 118.3 19.4 116.4 C 24.7 114.1 32.1 112.9 41.4 112.9 C 52.8 112.9 61.5 115 67.5 119.3 C 73.5 123.6 77 130.3 78.1 139.6 L 52.1 141.1 C 51.4 137.1 50 134.2 47.7 132.3 C 45.5 130.4 42.4 129.5 38.5 129.6 C 35.3 129.6 32.9 130.3 31.3 131.7 C 29.7 132.9 28.8 134.7 28.9 136.7 C 28.9 138.2 29.7 139.6 30.9 140.5 C 32.2 141.7 35.3 142.8 40.2 143.8 C 52.3 146.4 60.9 149 66.2 151.7 C 71.5 154.4 75.3 157.7 77.6 161.6 C 80 165.6 81.2 170.2 81.2 174.8 C 81.2 180.4 79.5 185.9 76.4 190.6 C 73.1 195.5 68.5 199.3 63.1 201.6 C 57.4 204.1 50.2 205.4 41.6 205.4 C 26.4 205.4 15.9 202.5 10 196.6 C 4.1 190.6 0.8 183.2 0 174.2 L 0 174.2 Z " fill="rgb(255,255,255)"/><path d=" M 133 167.2 L 157.2 174.5 C 155.9 180.6 153.2 186.4 149.5 191.5 C 146.1 196 141.6 199.5 136.5 201.8 C 131.3 204.1 124.7 205.3 116.7 205.3 C 107 205.3 99 203.9 92.9 201.1 C 86.7 198.3 81.4 193.3 76.9 186.2 C 72.4 179.1 70.2 170 70.2 158.9 C 70.2 144.1 74.1 132.7 82 124.8 C 89.9 116.9 101 112.9 115.4 112.9 C 126.7 112.9 135.5 115.2 142 119.7 C 148.4 124.3 153.2 131.3 156.4 140.7 L 132 146.1 C 131.4 144 130.5 141.9 129.3 140.1 C 127.8 138 125.9 136.4 123.6 135.2 C 121.3 134 118.7 133.5 116.1 133.5 C 109.8 133.5 105 136 101.7 141.1 C 99.2 144.8 97.9 150.7 97.9 158.7 C 97.9 168.6 99.4 175.4 102.4 179.1 C 105.4 182.8 109.6 184.6 115.1 184.6 C 120.4 184.6 124.4 183.1 127.1 180.2 C 129.8 177.1 131.8 172.8 133 167.2 Z  M 189.5 114.4 L 217.1 114.4 L 217.1 145.7 L 247.3 145.7 L 247.3 114.4 L 275.1 114.4 L 275.1 203.8 L 247.3 203.8 L 247.3 167.6 L 217.1 167.6 L 217.1 203.8 L 189.5 203.8 L 189.5 114.4 L 189.5 114.4 Z " fill="rgb(255,255,255)"/><path d=" M 271.3 159.1 C 271.3 144.5 275.4 133.1 283.5 125 C 291.6 116.9 303 112.8 317.5 112.8 C 332.4 112.8 343.8 116.8 351.9 124.8 C 360 132.8 364 144 364 158.4 C 364 168.9 362.2 177.4 358.7 184.1 C 355.3 190.7 350 196.1 343.5 199.7 C 336.8 203.4 328.5 205.3 318.6 205.3 C 308.5 205.3 300.2 203.7 293.6 200.5 C 286.8 197.1 281.2 191.8 277.5 185.3 C 273.4 178.3 271.3 169.6 271.3 159.1 Z  M 298.9 159.2 C 298.9 168.2 300.6 174.7 303.9 178.7 C 307.2 182.6 311.8 184.6 317.6 184.6 C 323.5 184.6 328.1 182.7 331.4 178.8 C 334.7 174.9 336.3 168 336.3 158 C 336.3 149.6 334.6 143.4 331.2 139.6 C 327.8 135.7 323.2 133.8 317.4 133.8 C 312.3 133.6 307.4 135.8 304 139.7 C 300.6 143.6 298.9 150.1 298.9 159.2 L 298.9 159.2 Z  M 392.3 159.1 C 392.3 144.5 396.4 133.1 404.5 125 C 412.6 116.9 424 112.8 438.5 112.8 C 453.4 112.8 464.9 116.8 472.9 124.8 C 480.9 132.8 485 144 485 158.4 C 485 168.9 483.2 177.4 479.7 184.1 C 476.3 190.7 471 196.1 464.5 199.7 C 457.8 203.4 449.5 205.3 439.6 205.3 C 429.5 205.3 421.2 203.7 414.6 200.5 C 407.8 197.1 402.2 191.8 398.5 185.3 C 394.4 178.3 392.3 169.6 392.3 159.1 L 392.3 159.1 Z  M 419.9 159.2 C 419.9 168.2 421.6 174.7 424.9 178.7 C 428.2 182.6 432.8 184.6 438.6 184.6 C 444.5 184.6 449.1 182.7 452.4 178.8 C 455.7 174.9 457.3 168 457.3 158 C 457.3 149.6 455.6 143.4 452.2 139.6 C 448.8 135.7 444.2 133.8 438.4 133.8 C 433.3 133.6 428.3 135.8 425 139.7 C 421.6 143.6 419.9 150.1 419.9 159.2 L 419.9 159.2 Z " fill="rgb(255,255,255)"/><path d=" M 482.1 114.4 L 509.7 114.4 L 509.7 181.8 L 552.8 181.8 L 552.8 203.8 L 482 203.8 L 482 114.4 L 482.1 114.4 Z " fill="rgb(255,255,255)"/><path d=" M 370.191 105.787 C 352.985 82.955 361.561 47.429 389.329 26.503 C 417.098 5.577 453.612 7.125 470.817 29.957 C 488.023 52.789 479.447 88.315 451.679 109.241 C 423.91 130.167 387.396 128.619 370.191 105.787 Z " fill="none" vector-effect="non-scaling-stroke" stroke-width="1" stroke="rgb(255,255,255)" stroke-linejoin="miter" stroke-linecap="butt" stroke-miterlimit="4"/><path d=" M 392.404 61.272 L 402.404 54.272 L 414.704 71.772 C 416.804 74.572 418.404 77.572 419.604 80.872 C 420.304 83.372 420.104 86.072 419.104 88.472 C 417.804 91.472 415.704 93.972 412.904 95.772 C 409.604 98.072 406.804 99.372 404.404 99.772 C 402.104 100.172 399.704 99.772 397.504 98.772 C 395.104 97.572 393.004 95.872 391.404 93.672 L 400.004 85.672 C 400.704 86.772 401.604 87.772 402.604 88.572 C 403.304 89.072 404.104 89.372 405.004 89.372 C 405.704 89.372 406.404 89.072 406.904 88.672 C 407.904 88.072 408.604 86.872 408.504 85.672 C 408.204 83.972 407.504 82.272 406.404 80.972 L 392.404 61.272 L 392.404 61.272 Z  M 422.404 72.372 L 431.504 65.172 C 432.504 66.372 433.804 67.272 435.204 67.772 C 437.204 68.372 439.304 67.972 441.004 66.672 C 442.204 65.872 443.204 64.772 443.604 63.372 C 444.204 61.572 443.204 59.572 441.404 58.972 C 441.104 58.872 440.804 58.772 440.504 58.772 C 439.304 58.672 437.204 59.172 434.104 60.472 C 429.004 62.572 425.004 63.372 422.004 63.072 C 419.104 62.772 416.404 61.272 414.804 58.772 C 413.604 57.072 413.004 55.072 412.904 53.072 C 412.904 50.772 413.504 48.472 414.804 46.572 C 416.704 43.872 419.004 41.572 421.804 39.772 C 426.004 36.872 429.704 35.472 432.904 35.472 C 436.104 35.472 439.104 36.972 441.904 40.072 L 432.904 47.172 C 431.104 44.872 427.704 44.372 425.404 46.172 L 425.104 46.472 C 424.104 47.072 423.404 47.972 423.004 49.072 C 422.704 49.872 422.904 50.772 423.404 51.472 C 423.804 51.972 424.404 52.372 425.104 52.372 C 425.904 52.472 427.304 52.072 429.304 51.172 C 434.304 49.072 438.104 47.872 440.704 47.472 C 442.904 47.072 445.204 47.272 447.304 48.172 C 449.204 48.972 450.804 50.372 451.904 52.072 C 453.304 54.072 454.104 56.472 454.204 58.972 C 454.304 61.572 453.604 64.072 452.204 66.272 C 450.404 68.972 448.104 71.272 445.404 73.072 C 439.904 76.872 435.404 78.472 431.804 77.872 C 427.904 77.272 424.704 75.272 422.404 72.372 L 422.404 72.372 Z " fill="rgb(255,255,255)"/></g></svg>

<svg id="Layer_1" xmlns="http://www.w3.org/2000/svg" xmlns:xlink="http://www.w3.org/1999/xlink" viewBox="0 0 552.8 205.3"><style>.st0{fill:#fff}.st1{clip-path:url(#SVGID_2_)}.st2{clip-path:url(#SVGID_4_)}.st3{clip-path:url(#SVGID_6_)}.st4{clip-path:url(#SVGID_8_)}.st5{fill:#fff;stroke:#000;stroke-width:4;stroke-miterlimit:10}.st6{clip-path:url(#SVGID_8_)}.st6,.st7{fill:none;stroke:#000;stroke-width:4;stroke-miterlimit:10}.st8,.st9{clip-path:url(#SVGID_10_)}.st9{fill:none;stroke:#000;stroke-width:4;stroke-miterlimit:10}</style><title>rs_school_js</title><path d="M285.4 68l26.3-1.7c.6 4.3 1.7 7.5 3.5 9.8 2.9 3.6 6.9 5.4 12.2 5.4 3.9 0 7-.9 9.1-2.8 2-1.5 3.2-3.9 3.2-6.4 0-2.4-1.1-4.7-3-6.2-2-1.8-6.7-3.6-14.1-5.2-12.1-2.7-20.8-6.3-25.9-10.9-5.1-4.3-8-10.6-7.8-17.3 0-4.6 1.4-9.2 4-13 3-4.3 7.1-7.7 12-9.6 5.3-2.3 12.7-3.5 22-3.5 11.4 0 20.1 2.1 26.1 6.4 6 4.2 9.6 11 10.7 20.3l-26 1.5c-.7-4-2.1-6.9-4.4-8.8s-5.3-2.8-9.2-2.8c-3.2 0-5.6.7-7.2 2-1.5 1.2-2.5 3-2.4 5 0 1.5.8 2.9 2 3.8 1.3 1.2 4.4 2.3 9.3 3.3 12.1 2.6 20.7 5.2 26 7.9 5.3 2.7 9.1 6 11.4 9.9 2.4 4 3.6 8.6 3.5 13.3 0 5.6-1.6 11.2-4.8 15.9-3.3 4.9-7.9 8.7-13.3 11-5.7 2.5-12.9 3.8-21.5 3.8-15.2 0-25.7-2.9-31.6-8.8S286.1 77 285.4 68zM6.3 97.6V8.2h46.1c8.5 0 15.1.7 19.6 2.2 4.4 1.4 8.3 4.3 10.9 8.2 2.9 4.3 4.3 9.3 4.2 14.5.3 8.8-4.2 17.2-11.9 21.6-3 1.7-6.3 2.9-9.7 3.5 2.5.7 5 1.9 7.2 3.3 1.7 1.4 3.1 3 4.4 4.7 1.5 1.7 2.8 3.6 3.9 5.6l13.4 25.9H63L48.2 70.2c-1.9-3.5-3.5-5.8-5-6.9-2-1.4-4.4-2.1-6.8-2.1H34v36.3H6.3zM34 44.4h11.7c2.5-.2 4.9-.6 7.3-1.2 1.8-.3 3.4-1.3 4.5-2.8 2.7-3.6 2.3-8.7-1-11.8-1.8-1.5-5.3-2.3-10.3-2.3H34v18.1zM0 174.2l26.3-1.7c.6 4.3 1.7 7.5 3.5 9.8 2.8 3.6 6.9 5.5 12.2 5.5 3.9 0 7-.9 9.1-2.8 2-1.6 3.2-3.9 3.2-6.4 0-2.4-1.1-4.7-3-6.2-2-1.8-6.7-3.6-14.2-5.2-12.1-2.7-20.8-6.3-25.9-10.9-5.1-4.3-8-10.6-7.8-17.3 0-4.6 1.4-9.2 4-13 3-4.3 7.1-7.7 12-9.6 5.3-2.3 12.7-3.5 22-3.5 11.4 0 20.1 2.1 26.1 6.4s9.5 11 10.6 20.3l-26 1.5c-.7-4-2.1-6.9-4.4-8.8-2.2-1.9-5.3-2.8-9.2-2.7-3.2 0-5.6.7-7.2 2.1-1.6 1.2-2.5 3-2.4 5 0 1.5.8 2.9 2 3.8 1.3 1.2 4.4 2.3 9.3 3.3 12.1 2.6 20.7 5.2 26 7.9 5.3 2.7 9.1 6 11.4 9.9 2.4 4 3.6 8.6 3.6 13.2 0 5.6-1.7 11.1-4.8 15.8-3.3 4.9-7.9 8.7-13.3 11-5.7 2.5-12.9 3.8-21.5 3.8-15.2 0-25.7-2.9-31.6-8.8-5.9-6-9.2-13.4-10-22.4z"/><path d="M133 167.2l24.2 7.3c-1.3 6.1-4 11.9-7.7 17-3.4 4.5-7.9 8-13 10.3-5.2 2.3-11.8 3.5-19.8 3.5-9.7 0-17.7-1.4-23.8-4.2-6.2-2.8-11.5-7.8-16-14.9-4.5-7.1-6.7-16.2-6.7-27.3 0-14.8 3.9-26.2 11.8-34.1s19-11.9 33.4-11.9c11.3 0 20.1 2.3 26.6 6.8 6.4 4.6 11.2 11.6 14.4 21l-24.4 5.4c-.6-2.1-1.5-4.2-2.7-6-1.5-2.1-3.4-3.7-5.7-4.9-2.3-1.2-4.9-1.7-7.5-1.7-6.3 0-11.1 2.5-14.4 7.6-2.5 3.7-3.8 9.6-3.8 17.6 0 9.9 1.5 16.7 4.5 20.4 3 3.7 7.2 5.5 12.7 5.5 5.3 0 9.3-1.5 12-4.4 2.7-3.1 4.7-7.4 5.9-13zm56.5-52.8h27.6v31.3h30.2v-31.3h27.8v89.4h-27.8v-36.2h-30.2v36.2h-27.6v-89.4z"/><path d="M271.3 159.1c0-14.6 4.1-26 12.2-34.1 8.1-8.1 19.5-12.2 34-12.2 14.9 0 26.3 4 34.4 12S364 144 364 158.4c0 10.5-1.8 19-5.3 25.7-3.4 6.6-8.7 12-15.2 15.6-6.7 3.7-15 5.6-24.9 5.6-10.1 0-18.4-1.6-25-4.8-6.8-3.4-12.4-8.7-16.1-15.2-4.1-7-6.2-15.7-6.2-26.2zm27.6.1c0 9 1.7 15.5 5 19.5 3.3 3.9 7.9 5.9 13.7 5.9 5.9 0 10.5-1.9 13.8-5.8s4.9-10.8 4.9-20.8c0-8.4-1.7-14.6-5.1-18.4-3.4-3.9-8-5.8-13.8-5.8-5.1-.2-10 2-13.4 5.9-3.4 3.9-5.1 10.4-5.1 19.5zm93.4-.1c0-14.6 4.1-26 12.2-34.1 8.1-8.1 19.5-12.2 34-12.2 14.9 0 26.4 4 34.4 12S485 144 485 158.4c0 10.5-1.8 19-5.3 25.7-3.4 6.6-8.7 12-15.2 15.6-6.7 3.7-15 5.6-24.9 5.6-10.1 0-18.4-1.6-25-4.8-6.8-3.4-12.4-8.7-16.1-15.2-4.1-7-6.2-15.7-6.2-26.2zm27.6.1c0 9 1.7 15.5 5 19.5 3.3 3.9 7.9 5.9 13.7 5.9 5.9 0 10.5-1.9 13.8-5.8 3.3-3.9 4.9-10.8 4.9-20.8 0-8.4-1.7-14.6-5.1-18.4-3.4-3.9-8-5.8-13.8-5.8-5.1-.2-10.1 2-13.4 5.9-3.4 3.9-5.1 10.4-5.1 19.5z"/><path d="M482.1 114.4h27.6v67.4h43.1v22H482v-89.4z"/><ellipse transform="rotate(-37.001 420.46 67.88)" class="st0" cx="420.5" cy="67.9" rx="63" ry="51.8"/><defs><ellipse id="SVGID_1_" transform="rotate(-37.001 420.46 67.88)" cx="420.5" cy="67.9" rx="63" ry="51.8"/></defs><clipPath id="SVGID_2_"><use xlink:href="#SVGID_1_" overflow="visible"/></clipPath><g class="st1"><path transform="rotate(-37.001 420.82 68.353)" class="st0" d="M330.9-14.2h179.8v165.1H330.9z"/><g id="Layer_2_1_"><defs><path id="SVGID_3_" transform="rotate(-37.001 420.82 68.353)" d="M330.9-14.2h179.8v165.1H330.9z"/></defs><clipPath id="SVGID_4_"><use xlink:href="#SVGID_3_" overflow="visible"/></clipPath><g id="Layer_1-2" class="st2"><ellipse transform="rotate(-37.001 420.46 67.88)" class="st0" cx="420.5" cy="67.9" rx="63" ry="51.8"/><defs><ellipse id="SVGID_5_" transform="rotate(-37.001 420.46 67.88)" cx="420.5" cy="67.9" rx="63" ry="51.8"/></defs><clipPath id="SVGID_6_"><use xlink:href="#SVGID_5_" overflow="visible"/></clipPath><g class="st3"><path transform="rotate(-37 420.799 68.802)" class="st0" d="M357.8 17h125.9v103.7H357.8z"/><defs><path id="SVGID_7_" transform="rotate(-37 420.799 68.802)" d="M357.8 17h125.9v103.7H357.8z"/></defs><clipPath id="SVGID_8_"><use xlink:href="#SVGID_7_" overflow="visible"/></clipPath><g class="st4"><ellipse transform="rotate(-37.001 420.46 67.88)" class="st5" cx="420.5" cy="67.9" rx="63" ry="51.8"/></g><path transform="rotate(-37 420.799 68.802)" class="st6" d="M357.8 17h125.9v103.7H357.8z"/><ellipse transform="rotate(-37.001 420.46 67.88)" class="st7" cx="420.5" cy="67.9" rx="63" ry="51.8"/><path transform="rotate(-37 420.799 68.802)" class="st0" d="M357.8 17h125.9v103.7H357.8z"/><defs><path id="SVGID_9_" transform="rotate(-37 420.799 68.802)" d="M357.8 17h125.9v103.7H357.8z"/></defs><clipPath id="SVGID_10_"><use xlink:href="#SVGID_9_" overflow="visible"/></clipPath><g class="st8"><ellipse transform="rotate(-37.001 420.46 67.88)" class="st5" cx="420.5" cy="67.9" rx="63" ry="51.8"/></g><path transform="rotate(-37 420.799 68.802)" class="st9" d="M357.8 17h125.9v103.7H357.8z"/><path transform="rotate(-37.001 420.82 68.353)" class="st7" d="M330.9-14.2h179.8v165.1H330.9z"/></g><ellipse transform="rotate(-37.001 420.46 67.88)" class="st7" cx="420.5" cy="67.9" rx="63" ry="51.8"/><path d="M392.4 61.3l10-7 12.3 17.5c2.1 2.8 3.7 5.8 4.9 9.1.7 2.5.5 5.2-.5 7.6-1.3 3-3.4 5.5-6.2 7.3-3.3 2.3-6.1 3.6-8.5 4-2.3.4-4.7 0-6.9-1-2.4-1.2-4.5-2.9-6.1-5.1l8.6-8c.7 1.1 1.6 2.1 2.6 2.9.7.5 1.5.8 2.4.8.7 0 1.4-.3 1.9-.7 1-.6 1.7-1.8 1.6-3-.3-1.7-1-3.4-2.1-4.7l-14-19.7zm30 11.1l9.1-7.2c1 1.2 2.3 2.1 3.7 2.6 2 .6 4.1.2 5.8-1.1 1.2-.8 2.2-1.9 2.6-3.3.6-1.8-.4-3.8-2.2-4.4-.3-.1-.6-.2-.9-.2-1.2-.1-3.3.4-6.4 1.7-5.1 2.1-9.1 2.9-12.1 2.6-2.9-.3-5.6-1.8-7.2-4.3-1.2-1.7-1.8-3.7-1.9-5.7 0-2.3.6-4.6 1.9-6.5 1.9-2.7 4.2-5 7-6.8 4.2-2.9 7.9-4.3 11.1-4.3 3.2 0 6.2 1.5 9 4.6l-9 7.1c-1.8-2.3-5.2-2.8-7.5-1l-.3.3c-1 .6-1.7 1.5-2.1 2.6-.3.8-.1 1.7.4 2.4.4.5 1 .9 1.7.9.8.1 2.2-.3 4.2-1.2 5-2.1 8.8-3.3 11.4-3.7 2.2-.4 4.5-.2 6.6.7 1.9.8 3.5 2.2 4.6 3.9 1.4 2 2.2 4.4 2.3 6.9.1 2.6-.6 5.1-2 7.3-1.8 2.7-4.1 5-6.8 6.8-5.5 3.8-10 5.4-13.6 4.8-3.9-.6-7.1-2.6-9.4-5.5z"/></g></g></g></svg>
